X: 22996
T: Last August
R: jig
M: 6/8
K: Dmajor
dcd Bcd|fdB A2F|GFG EFG|BAG F2A|
dcd Bcd|fdB A2F|GBe d2B|cde d2A:|
FAA dcd|ede f2A|B2c dfd|edf edB|
AFA dcd|ede f2A|B2c dfd|edc d2A:|

